documentation/public/assets/images/sidebar.svg

<svg width="333" height="192" viewBox="0 0 333 192" fill="none" xmlns="http://www.w3.org/2000/svg">
<g clip-path="url(#clip0_1431_9002)">
<rect width="333" height="191.799" fill="#F3F8FF"/>
<g clip-path="url(#clip1_1431_9002)">
<rect width="49.8033" height="192" fill="white"/>
<mask id="path-1-inside-1_1431_9002" fill="white">
<path d="M0 0H49.8033V369.563H0V0Z"/>
</mask>
<path d="M0 0H49.8033V369.563H0V0Z" fill="white"/>
<path d="M9.05469 15.8465C9.05469 12.0958 12.0953 9.05518 15.846 9.05518H33.9563C37.7071 9.05518 40.7477 12.0958 40.7477 15.8465V29.4293C40.7477 33.18 37.7071 36.2206 33.9563 36.2206H15.8461C12.0953 36.2206 9.05469 33.18 9.05469 29.4293V15.8465Z" fill="#F3F8FF"/>
<path d="M22.0713 20.3062H20.9394C20.6678 20.3062 20.4414 20.0855 20.4414 19.8081V18.6763C20.4414 18.4046 20.6621 18.1782 20.9394 18.1782H22.0713C22.343 18.1782 22.5694 18.3989 22.5694 18.6763V19.8081C22.5694 20.0798 22.3486 20.3062 22.0713 20.3062ZM21.4375 19.3158H21.579V19.1743H21.4375V19.3158Z" fill="#0F67F5"/>
<path d="M25.467 20.3062H24.3351C24.0635 20.3062 23.8371 20.0855 23.8371 19.8081V18.6763C23.8371 18.4046 24.0578 18.1782 24.3351 18.1782H25.467C25.7387 18.1782 25.965 18.3989 25.965 18.6763V19.8081C25.965 20.0798 25.7443 20.3062 25.467 20.3062ZM24.8332 19.3158H24.9746V19.1743H24.8332V19.3158Z" fill="#0F67F5"/>
<path d="M28.8627 20.3062H27.7308C27.4591 20.3062 27.2328 20.0855 27.2328 19.8081V18.6763C27.2328 18.4046 27.4535 18.1782 27.7308 18.1782H28.8627C29.1343 18.1782 29.3607 18.3989 29.3607 18.6763V19.8081C29.3607 20.0798 29.14 20.3062 28.8627 20.3062ZM28.2288 19.3158H28.3703V19.1743H28.2288V19.3158Z" fill="#0F67F5"/>
<path d="M22.0713 23.7019H20.9394C20.6678 23.7019 20.4414 23.4811 20.4414 23.2038V22.0719C20.4414 21.8003 20.6621 21.5739 20.9394 21.5739H22.0713C22.343 21.5739 22.5694 21.7946 22.5694 22.0719V23.2038C22.5694 23.4755 22.3486 23.7019 22.0713 23.7019ZM21.4375 22.7115H21.579V22.57H21.4375V22.7115Z" fill="#0F67F5"/>
<path d="M25.467 23.7019H24.3351C24.0635 23.7019 23.8371 23.4811 23.8371 23.2038V22.0719C23.8371 21.8003 24.0578 21.5739 24.3351 21.5739H25.467C25.7387 21.5739 25.965 21.7946 25.965 22.0719V23.2038C25.965 23.4755 25.7443 23.7019 25.467 23.7019ZM24.8332 22.7115H24.9746V22.57H24.8332V22.7115Z" fill="#0F67F5"/>
<path d="M28.8627 23.7019H27.7308C27.4591 23.7019 27.2328 23.4811 27.2328 23.2038V22.0719C27.2328 21.8003 27.4535 21.5739 27.7308 21.5739H28.8627C29.1343 21.5739 29.3607 21.7946 29.3607 22.0719V23.2038C29.3607 23.4755 29.14 23.7019 28.8627 23.7019ZM28.2288 22.7115H28.3703V22.57H28.2288V22.7115Z" fill="#0F67F5"/>
<path d="M22.0713 27.0975H20.9394C20.6678 27.0975 20.4414 26.8768 20.4414 26.5995V25.4676C20.4414 25.196 20.6621 24.9696 20.9394 24.9696H22.0713C22.343 24.9696 22.5694 25.1903 22.5694 25.4676V26.5995C22.5694 26.8712 22.3486 27.0975 22.0713 27.0975ZM21.4375 26.1071H21.579V25.9657H21.4375V26.1071Z" fill="#0F67F5"/>
<path d="M25.467 27.0975H24.3351C24.0635 27.0975 23.8371 26.8768 23.8371 26.5995V25.4676C23.8371 25.196 24.0578 24.9696 24.3351 24.9696H25.467C25.7387 24.9696 25.965 25.1903 25.965 25.4676V26.5995C25.965 26.8712 25.7443 27.0975 25.467 27.0975ZM24.8332 26.1071H24.9746V25.9657H24.8332V26.1071Z" fill="#0F67F5"/>
<path d="M28.8627 27.0975H27.7308C27.4591 27.0975 27.2328 26.8768 27.2328 26.5995V25.4676C27.2328 25.196 27.4535 24.9696 27.7308 24.9696H28.8627C29.1343 24.9696 29.3607 25.1903 29.3607 25.4676V26.5995C29.3607 26.8712 29.14 27.0975 28.8627 27.0975ZM28.2288 26.1071H28.3703V25.9657H28.2288V26.1071Z" fill="#0F67F5"/>
<path d="M9.05469 44.1439C9.05469 40.3931 12.0953 37.3525 15.846 37.3525H33.9563C37.7071 37.3525 40.7477 40.3931 40.7477 44.1439V57.7266C40.7477 61.4774 37.7071 64.518 33.9563 64.518H15.8461C12.0953 64.518 9.05469 61.4774 9.05469 57.7266V44.1439Z" fill="white"/>
<path d="M28.8627 56.5269H22.6373C21.4262 56.5269 20.4414 55.5421 20.4414 54.331V47.5396C20.4414 46.3285 21.4262 45.3438 22.6373 45.3438H28.8627C29.1343 45.3438 29.3607 45.5645 29.3607 45.8418V56.0288C29.3607 56.3005 29.14 56.5269 28.8627 56.5269ZM22.6373 46.3398C21.9751 46.3398 21.4375 46.8775 21.4375 47.5396V54.331C21.4375 54.9931 21.9751 55.5308 22.6373 55.5308H28.3647V46.3398H22.6373Z" fill="#333333"/>
<path d="M20.9394 54.829C20.6678 54.829 20.4414 54.6083 20.4414 54.331C20.4414 53.1199 21.4262 52.1351 22.6373 52.1351H28.8627C29.1343 52.1351 29.3607 52.3558 29.3607 52.6331C29.3607 52.9105 29.14 53.1312 28.8627 53.1312H22.6373C21.9751 53.1312 21.4375 53.6688 21.4375 54.331C21.4375 54.6026 21.2168 54.829 20.9394 54.829Z" fill="#333333"/>
<path d="M9.05469 72.4413C9.05469 68.6905 12.0953 65.6499 15.846 65.6499H33.9563C37.7071 65.6499 40.7477 68.6905 40.7477 72.4413V86.024C40.7477 89.7748 37.7071 92.8153 33.9563 92.8153H15.8461C12.0953 92.8153 9.05469 89.7748 9.05469 86.024V72.4413Z" fill="white"/>
<path d="M28.8628 85.1295H19.8076C19.5359 85.1295 19.3096 84.9088 19.3096 84.6315V74.4501C19.3096 74.1785 19.5303 73.9521 19.8076 73.9521H25.4671C25.7387 73.9521 25.9651 74.1728 25.9651 74.4501C25.9651 74.7274 25.7444 74.9482 25.4671 74.9482H20.3056V84.1391H28.3704V80.1096C28.3704 79.8379 28.5911 79.6116 28.8684 79.6116C29.1457 79.6116 29.3664 79.8323 29.3664 80.1096V84.6372C29.3664 84.9088 29.1457 85.1352 28.8684 85.1352L28.8628 85.1295Z" fill="#333333"/>
<path d="M23.8654 82.5828H22.3544C22.0827 82.5828 21.8563 82.3621 21.8563 82.0848V80.5737C21.8563 80.1379 22.0261 79.7304 22.3317 79.4248L27.6403 74.1219C28.2742 73.488 29.3099 73.488 29.9437 74.1219L30.3229 74.5011C30.9568 75.1349 30.9568 76.1706 30.3229 76.8045L25.0143 82.113C24.7087 82.4187 24.2956 82.5884 23.8654 82.5884V82.5828ZM22.8467 81.5924H23.8654C24.0352 81.5924 24.1937 81.5245 24.3125 81.4056L29.6211 76.1027C29.8701 75.8537 29.8701 75.4519 29.6211 75.2028L29.2419 74.8237C28.9929 74.5746 28.5911 74.5746 28.3421 74.8237L23.0392 80.1266C22.9203 80.2454 22.8524 80.4095 22.8524 80.5793V81.598L22.8467 81.5924Z" fill="#333333"/>
<path d="M29.2872 77.6307C29.1627 77.6307 29.0325 77.5798 28.9363 77.4836L26.9555 75.5028C26.7631 75.3104 26.7631 74.9934 26.9555 74.801C27.1479 74.6086 27.4649 74.6086 27.6573 74.801L29.6381 76.7818C29.8305 76.9743 29.8305 77.2912 29.6381 77.4836C29.5419 77.5798 29.4117 77.6307 29.2872 77.6307Z" fill="#333333"/>
<path d="M9.05469 100.739C9.05469 96.9879 12.0953 93.9473 15.846 93.9473H33.9563C37.7071 93.9473 40.7477 96.9879 40.7477 100.739V114.321C40.7477 118.072 37.7071 121.113 33.9563 121.113H15.8461C12.0953 121.113 9.05469 118.072 9.05469 114.321V100.739Z" fill="white"/>
<g clip-path="url(#clip2_1431_9002)">
<path d="M31.1264 111.424C30.8547 111.424 30.6284 111.203 30.6284 110.926C30.6284 110.496 30.3171 110.309 29.5587 109.964C29.1173 109.76 28.6136 109.533 28.2287 109.154C27.7251 108.651 28.1722 108.169 28.3193 108.011C28.5627 107.751 28.9305 107.355 28.9305 106.257C28.9305 104.825 28.325 104.627 27.7307 104.627C27.1365 104.627 26.5309 104.819 26.5309 106.257C26.5309 107.355 26.8988 107.745 27.1421 108.011C27.2893 108.169 27.7364 108.651 27.2327 109.154C26.9271 109.46 26.5479 109.664 26.2479 109.805C26.0951 109.879 25.9197 109.952 25.7046 110.037C25.8631 110.275 25.9593 110.563 25.9593 110.926C25.9593 111.197 25.7386 111.424 25.4613 111.424C25.184 111.424 24.9632 111.203 24.9632 110.926C24.9632 110.496 24.652 110.309 23.8936 109.964C23.4522 109.76 22.9485 109.533 22.5636 109.154C22.0599 108.651 22.507 108.169 22.6542 108.011C22.8975 107.751 23.2654 107.355 23.2654 106.257C23.2654 104.825 22.6598 104.627 22.0656 104.627C21.4713 104.627 20.8658 104.819 20.8658 106.257C20.8658 107.355 21.2336 107.745 21.477 108.011C21.6242 108.169 22.0712 108.651 21.5676 109.154C21.1827 109.539 20.679 109.765 20.2376 109.964C19.4736 110.309 19.1679 110.49 19.1679 110.926C19.1679 111.197 18.9472 111.424 18.6699 111.424C18.3926 111.424 18.1719 111.203 18.1719 110.926C18.1719 109.811 19.0887 109.398 19.8244 109.064C20.1244 108.928 20.4357 108.786 20.679 108.611C20.3621 108.266 19.8697 107.637 19.8697 106.257C19.8697 103.981 21.245 103.642 22.0656 103.642C22.8862 103.642 24.2615 103.981 24.2615 106.257C24.2615 107.637 23.7691 108.266 23.4522 108.611C23.6955 108.786 24.0068 108.928 24.3067 109.064C24.5105 109.154 24.7255 109.25 24.9293 109.369C24.9859 109.279 25.0708 109.211 25.1783 109.171C25.4386 109.075 25.6537 108.99 25.8178 108.911C25.9876 108.826 26.18 108.73 26.3441 108.605C26.0272 108.26 25.5348 107.632 25.5348 106.251C25.5348 103.976 26.9101 103.636 27.7307 103.636C28.5513 103.636 29.9266 103.976 29.9266 106.251C29.9266 107.632 29.4342 108.26 29.1173 108.605C29.3606 108.781 29.6719 108.922 29.9719 109.058C30.7076 109.392 31.6244 109.805 31.6244 110.92C31.6244 111.192 31.4037 111.418 31.1264 111.418V111.424Z" fill="#333333"/>
<path d="M24.9005 110.292C24.6911 110.292 24.4987 110.162 24.4308 109.958C24.3459 109.698 24.4817 109.42 24.7421 109.33C24.9458 109.262 25.093 109.211 25.1778 109.177C25.4382 109.086 25.7212 109.216 25.8117 109.477C25.9023 109.737 25.7721 110.02 25.5118 110.111C25.4155 110.145 25.2627 110.196 25.0533 110.269C25.0024 110.286 24.9458 110.297 24.8949 110.297L24.9005 110.292Z" fill="#333333"/>
</g>
<path d="M29.9946 140.853C29.8984 140.853 29.8022 140.825 29.7173 140.769C28.676 140.072 27.8158 139.722 27.1649 139.722C26.548 139.722 25.9085 140.055 25.252 140.706C25.0596 140.899 24.7483 140.899 24.5502 140.706C24.2729 140.429 23.39 139.722 22.6373 139.722C21.8337 139.722 20.5207 140.48 20.0793 140.769C19.9265 140.87 19.734 140.876 19.5699 140.791C19.4114 140.706 19.3096 140.537 19.3096 140.355V132.432C19.3096 132.268 19.3945 132.11 19.5303 132.019C19.7171 131.895 21.3866 130.802 22.6373 130.802C23.5485 130.802 24.4201 131.385 24.8898 131.764C25.6312 131.125 26.3952 130.802 27.1649 130.802C28.0252 130.802 29.0439 131.198 30.272 132.019C30.4078 132.11 30.4927 132.268 30.4927 132.432V140.355C30.4927 140.537 30.3908 140.706 30.2323 140.791C30.1588 140.831 30.0795 140.848 30.0003 140.848L29.9946 140.853ZM22.6373 138.731C23.5485 138.731 24.4201 139.314 24.8898 139.693C25.6312 139.054 26.3952 138.731 27.1649 138.731C27.8384 138.731 28.6081 138.975 29.4966 139.473V132.698C28.5515 132.098 27.7648 131.793 27.1649 131.793C26.565 131.793 25.9085 132.127 25.252 132.777C25.0596 132.97 24.7483 132.97 24.5502 132.777C24.2729 132.5 23.39 131.793 22.6373 131.793C21.9412 131.793 20.8659 132.359 20.3056 132.704V139.484C20.9508 139.139 21.8733 138.726 22.6373 138.726V138.731Z" fill="#333333"/>
<path d="M24.9011 140.853C24.6295 140.853 24.4031 140.633 24.4031 140.355V132.432C24.4031 132.161 24.6238 131.934 24.9011 131.934C25.1784 131.934 25.3992 132.155 25.3992 132.432V140.355C25.3992 140.627 25.1784 140.853 24.9011 140.853Z" fill="#333333"/>
<path d="M9.05469 157.333C9.05469 153.583 12.0953 150.542 15.846 150.542H33.9563C37.7071 150.542 40.7477 153.583 40.7477 157.333V170.916C40.7477 174.667 37.7071 177.707 33.9563 177.707H15.8461C12.0953 177.707 9.05469 174.667 9.05469 170.916V157.333Z" fill="white"/>
<g clip-path="url(#clip3_1431_9002)">
<path d="M26.0326 168.019C25.7609 168.019 25.5345 167.798 25.5345 167.521C25.5345 167.09 25.2233 166.904 24.4649 166.558C24.0234 166.36 23.5198 166.128 23.1349 165.743C22.6312 165.24 23.0783 164.759 23.2255 164.6C23.4688 164.34 23.8367 163.944 23.8367 162.846C23.8367 161.414 23.2311 161.216 22.6369 161.216C22.0426 161.216 21.4371 161.408 21.4371 162.846C21.4371 163.944 21.8049 164.334 22.0483 164.6C22.1954 164.759 22.6425 165.24 22.1388 165.743C21.754 166.128 21.2503 166.355 20.8089 166.558C20.0448 166.904 19.7392 167.085 19.7392 167.521C19.7392 167.792 19.5185 168.019 19.2412 168.019C18.9639 168.019 18.7432 167.798 18.7432 167.521C18.7432 166.406 19.66 165.992 20.3957 165.659C20.6957 165.523 21.007 165.381 21.2503 165.206C20.9334 164.861 20.441 164.232 20.441 162.851C20.441 160.576 21.8163 160.237 22.6369 160.237C23.4575 160.237 24.8328 160.576 24.8328 162.851C24.8328 164.232 24.3404 164.861 24.0234 165.206C24.2668 165.381 24.5781 165.523 24.878 165.659C25.6138 165.992 26.5306 166.406 26.5306 167.521C26.5306 167.792 26.3099 168.019 26.0326 168.019Z" fill="#333333"/>
<path d="M31.1261 164.057H26.5985C26.3269 164.057 26.1005 163.836 26.1005 163.559C26.1005 163.282 26.3212 163.061 26.5985 163.061H31.1261C31.3977 163.061 31.6241 163.282 31.6241 163.559C31.6241 163.836 31.4034 164.057 31.1261 164.057Z" fill="#333333"/>
<path d="M28.8623 166.321C28.5906 166.321 28.3643 166.1 28.3643 165.823V161.295C28.3643 161.023 28.585 160.797 28.8623 160.797C29.1396 160.797 29.3603 161.018 29.3603 161.295V165.823C29.3603 166.094 29.1396 166.321 28.8623 166.321Z" fill="#333333"/>
</g>
<rect x="9.05469" y="178.839" width="31.693" height="41.3141" fill="#D9D9D9" fill-opacity="0.01"/>
<path d="M49.2374 0V369.563H50.3693V0H49.2374Z" fill="#EBEBEB" mask="url(#path-1-inside-1_1431_9002)"/>
</g>
</g>
<defs>
<clipPath id="clip0_1431_9002">
<rect width="333" height="191.799" fill="white"/>
</clipPath>
<clipPath id="clip1_1431_9002">
<rect width="49.8033" height="192" fill="white"/>
</clipPath>
<clipPath id="clip2_1431_9002">
<rect width="13.5827" height="13.5827" fill="white" transform="translate(18.1094 100.739)"/>
</clipPath>
<clipPath id="clip3_1431_9002">
<rect width="13.5827" height="13.5827" fill="white" transform="translate(18.1094 157.333)"/>
</clipPath>
</defs>
</svg>

<svg width="333" height="192" fill="none" xmlns="http://www.w3.org/2000/svg"><g clip-path="url(#a)"><path fill="#F3F8FF" d="M0 0h333v191.8H0z"/><g clip-path="url(#b)"><path fill="#fff" d="M0 0h49.8v192H0z"/><mask id="e" fill="#fff"><path d="M0 0h49.8v369.56H0V0Z"/></mask><path d="M0 0h49.8v369.56H0V0Z" fill="#fff"/><path d="M9.05 15.85a6.8 6.8 0 0 1 6.8-6.8h18.1a6.8 6.8 0 0 1 6.8 6.8v13.58a6.8 6.8 0 0 1-6.8 6.8h-18.1a6.8 6.8 0 0 1-6.8-6.8V15.85Z" fill="#F3F8FF"/><path d="M22.07 20.3h-1.13a.5.5 0 0 1-.5-.5v-1.12c0-.28.22-.5.5-.5h1.13c.27 0 .5.22.5.5v1.13a.5.5 0 0 1-.5.5Zm-.63-.98h.14v-.15h-.14v.15Zm4.03.98h-1.13a.5.5 0 0 1-.5-.5v-1.12c0-.28.22-.5.5-.5h1.13c.27 0 .5.22.5.5v1.13a.5.5 0 0 1-.5.5Zm-.64-.98h.14v-.15h-.14v.15Zm4.03.98h-1.13a.5.5 0 0 1-.5-.5v-1.12c0-.28.22-.5.5-.5h1.13c.27 0 .5.22.5.5v1.13a.5.5 0 0 1-.5.5Zm-.63-.98h.14v-.15h-.14v.15Zm-6.16 4.38h-1.13a.5.5 0 0 1-.5-.5v-1.13c0-.27.22-.5.5-.5h1.13c.27 0 .5.22.5.5v1.13a.5.5 0 0 1-.5.5Zm-.63-.99h.14v-.14h-.14v.14Zm4.03.99h-1.13a.5.5 0 0 1-.5-.5v-1.13c0-.27.22-.5.5-.5h1.13c.27 0 .5.22.5.5v1.13a.5.5 0 0 1-.5.5Zm-.64-.99h.14v-.14h-.14v.14Zm4.03.99h-1.13a.5.5 0 0 1-.5-.5v-1.13c0-.27.22-.5.5-.5h1.13c.27 0 .5.22.5.5v1.13a.5.5 0 0 1-.5.5Zm-.63-.99h.14v-.14h-.14v.14Zm-6.16 4.39h-1.13a.5.5 0 0 1-.5-.5v-1.13c0-.27.22-.5.5-.5h1.13c.27 0 .5.22.5.5v1.13a.5.5 0 0 1-.5.5Zm-.63-1h.14v-.13h-.14v.14Zm4.03 1h-1.13a.5.5 0 0 1-.5-.5v-1.13c0-.27.22-.5.5-.5h1.13c.27 0 .5.22.5.5v1.13a.5.5 0 0 1-.5.5Zm-.64-1h.14v-.13h-.14v.14Zm4.03 1h-1.13a.5.5 0 0 1-.5-.5v-1.13c0-.27.22-.5.5-.5h1.13c.27 0 .5.22.5.5v1.13a.5.5 0 0 1-.5.5Zm-.63-1h.14v-.13h-.14v.14Z" fill="#0F67F5"/><path d="M9.05 44.14a6.8 6.8 0 0 1 6.8-6.79h18.1a6.8 6.8 0 0 1 6.8 6.8v13.58a6.8 6.8 0 0 1-6.8 6.79h-18.1a6.8 6.8 0 0 1-6.8-6.8V44.15Z" fill="#fff"/><path d="M28.86 56.53h-6.22a2.2 2.2 0 0 1-2.2-2.2v-6.79c0-1.21.99-2.2 2.2-2.2h6.22c.27 0 .5.22.5.5v10.19a.5.5 0 0 1-.5.5Zm-6.22-10.19c-.66 0-1.2.54-1.2 1.2v6.8c0 .65.54 1.2 1.2 1.2h5.72v-9.2h-5.72Z" fill="#333"/><path d="M20.94 54.83a.5.5 0 0 1-.5-.5c0-1.21.99-2.2 2.2-2.2h6.22a.5.5 0 0 1 0 1h-6.22c-.66 0-1.2.54-1.2 1.2a.5.5 0 0 1-.5.5Z" fill="#333"/><path d="M9.05 72.44a6.8 6.8 0 0 1 6.8-6.79h18.1a6.8 6.8 0 0 1 6.8 6.8v13.57a6.8 6.8 0 0 1-6.8 6.8h-18.1a6.8 6.8 0 0 1-6.8-6.8V72.44Z" fill="#fff"/><path d="M28.86 85.13h-9.05a.5.5 0 0 1-.5-.5V74.45c0-.27.22-.5.5-.5h5.66a.5.5 0 0 1 0 1H20.3v9.19h8.06V80.1a.5.5 0 0 1 1 0v4.53a.5.5 0 0 1-.5.5v-.01Z" fill="#333"/><path d="M23.87 82.58h-1.52a.5.5 0 0 1-.5-.5v-1.5c0-.44.18-.85.48-1.16l5.31-5.3a1.63 1.63 0 0 1 2.3 0l.38.38c.64.63.64 1.67 0 2.3l-5.3 5.31c-.31.3-.72.48-1.15.48Zm-1.02-.99h1.02c.17 0 .32-.07.44-.18l5.31-5.3a.64.64 0 0 0 0-.9l-.38-.39a.64.64 0 0 0-.9 0l-5.3 5.3a.64.64 0 0 0-.19.46v1.02Z" fill="#333"/><path d="M29.29 77.63a.5.5 0 0 1-.35-.15l-1.98-1.98a.5.5 0 0 1 0-.7c.19-.2.5-.2.7 0l1.98 1.98a.5.5 0 0 1-.35.85Z" fill="#333"/><path d="M9.05 100.74a6.8 6.8 0 0 1 6.8-6.8h18.1a6.8 6.8 0 0 1 6.8 6.8v13.58a6.8 6.8 0 0 1-6.8 6.8h-18.1a6.8 6.8 0 0 1-6.8-6.8v-13.58Z" fill="#fff"/><g clip-path="url(#c)" fill="#333"><path d="M31.13 111.42a.5.5 0 0 1-.5-.5c0-.42-.31-.61-1.07-.96-.44-.2-.95-.43-1.33-.8-.5-.5-.06-1 .09-1.15.24-.26.61-.66.61-1.75 0-1.44-.6-1.63-1.2-1.63s-1.2.19-1.2 1.63c0 1.1.37 1.48.61 1.75.15.16.6.64.1 1.14-.31.31-.7.51-1 .66l-.54.23c.16.23.26.52.26.89a.5.5 0 0 1-1 0c0-.43-.3-.62-1.07-.97-.44-.2-.94-.43-1.33-.8-.5-.5-.05-1 .1-1.15.24-.26.6-.66.6-1.75 0-1.44-.6-1.63-1.2-1.63-.59 0-1.2.19-1.2 1.63 0 1.1.37 1.48.62 1.75.14.16.6.64.09 1.14-.39.39-.9.61-1.33.81-.77.35-1.07.53-1.07.97a.5.5 0 0 1-1 0c0-1.12.92-1.53 1.65-1.87.3-.13.62-.27.86-.45-.32-.34-.81-.97-.81-2.35 0-2.28 1.38-2.62 2.2-2.62.82 0 2.2.34 2.2 2.62 0 1.38-.5 2-.82 2.35.25.18.56.32.86.45.2.1.42.19.62.3a.49.49 0 0 1 .25-.19c.26-.1.47-.18.64-.26.17-.08.36-.18.52-.3-.31-.35-.8-.98-.8-2.36 0-2.27 1.37-2.61 2.2-2.61.81 0 2.19.34 2.19 2.61 0 1.38-.5 2.01-.81 2.36.24.17.55.31.85.45.74.33 1.65.75 1.65 1.86a.5.5 0 0 1-.5.5Z"/><path d="M24.9 110.3a.5.5 0 0 1-.16-.97l.44-.15a.5.5 0 0 1 .63.3.5.5 0 0 1-.3.63l-.46.16a.52.52 0 0 1-.16.03h.01Z"/></g><path d="M30 140.85a.5.5 0 0 1-.28-.08c-1.04-.7-1.9-1.05-2.56-1.05-.61 0-1.25.34-1.9.99a.51.51 0 0 1-.71 0c-.28-.28-1.16-.99-1.91-.99-.8 0-2.12.76-2.56 1.05a.5.5 0 0 1-.77-.41v-7.93a.5.5 0 0 1 .22-.41c.19-.13 1.86-1.22 3.1-1.22.92 0 1.79.58 2.26.96.74-.63 1.5-.96 2.27-.96.87 0 1.88.4 3.11 1.22a.5.5 0 0 1 .22.41v7.92a.5.5 0 0 1-.26.44.48.48 0 0 1-.23.06Zm-7.36-2.12c.9 0 1.78.58 2.25.96.74-.64 1.5-.96 2.27-.96a5 5 0 0 1 2.34.74v-6.77c-.95-.6-1.74-.9-2.34-.9-.6 0-1.25.33-1.9.98a.51.51 0 0 1-.71 0c-.28-.28-1.16-.99-1.91-.99-.7 0-1.77.57-2.33.91v6.78a5.56 5.56 0 0 1 2.33-.75Z" fill="#333"/><path d="M24.9 140.85a.5.5 0 0 1-.5-.5v-7.92a.5.5 0 0 1 1 0v7.92a.5.5 0 0 1-.5.5Z" fill="#333"/><path d="M9.05 157.33a6.8 6.8 0 0 1 6.8-6.79h18.1a6.8 6.8 0 0 1 6.8 6.8v13.58a6.8 6.8 0 0 1-6.8 6.79h-18.1a6.8 6.8 0 0 1-6.8-6.8v-13.58Z" fill="#fff"/><g clip-path="url(#d)" fill="#333"><path d="M26.03 168.02a.5.5 0 0 1-.5-.5c0-.43-.3-.62-1.07-.96-.44-.2-.94-.43-1.33-.82-.5-.5-.05-.98.1-1.14.24-.26.6-.66.6-1.75 0-1.44-.6-1.63-1.2-1.63-.59 0-1.2.19-1.2 1.63 0 1.1.37 1.48.62 1.75.15.16.6.64.09 1.14-.39.39-.89.61-1.33.82-.77.34-1.07.53-1.07.96a.5.5 0 0 1-1 0c0-1.11.92-1.53 1.66-1.86.3-.14.6-.28.85-.45-.32-.35-.8-.98-.8-2.36 0-2.27 1.37-2.61 2.19-2.61.82 0 2.2.34 2.2 2.61 0 1.38-.5 2.01-.82 2.36.25.17.56.31.86.45.73.33 1.65.75 1.65 1.86a.5.5 0 0 1-.5.5Zm5.1-3.96H26.6a.5.5 0 0 1 0-1h4.53a.5.5 0 0 1 0 1Z"/><path d="M28.86 166.32a.5.5 0 0 1-.5-.5v-4.53a.5.5 0 0 1 1 0v4.53a.5.5 0 0 1-.5.5Z"/></g><path fill="#D9D9D9" fill-opacity=".01" d="M9.05 178.84h31.69v41.31H9.05z"/><path d="M49.24 0v369.56h1.13V0h-1.13Z" fill="#EBEBEB" mask="url(#e)"/></g></g><defs><clipPath id="a"><path fill="#fff" d="M0 0h333v191.8H0z"/></clipPath><clipPath id="b"><path fill="#fff" d="M0 0h49.8v192H0z"/></clipPath><clipPath id="c"><path fill="#fff" transform="translate(18.1 100.74)" d="M0 0h13.58v13.58H0z"/></clipPath><clipPath id="d"><path fill="#fff" transform="translate(18.1 157.33)" d="M0 0h13.58v13.58H0z"/></clipPath></defs></svg>
